; G-Code generated by Simplify3D(R) Version 4.0.1
; Dec 18, 2020 at 5:50:05 PM
; Settings Summary
;   processName,BLV MGN CUBE
;   applyToModels,xyzCalibration_cube
;   profileName,BLV mgn Cube - Simplify3D Profile V1.3
;   profileVersion,2020-11-07 11:24:20
;   baseProfile,Anet A8
;   printMaterial,PLA
;   printQuality,Medium
;   printExtruders,
;   extruderName,Primary Extruder
;   extruderToolheadNumber,0
;   extruderDiameter,0.4
;   extruderAutoWidth,1
;   extruderWidth,0.48
;   extrusionMultiplier,1
;   extruderUseRetract,1
;   extruderRetractionDistance,3
;   extruderExtraRestartDistance,0
;   extruderRetractionZLift,0
;   extruderRetractionSpeed,3600
;   extruderUseCoasting,0
;   extruderCoastingDistance,0.2
;   extruderUseWipe,1
;   extruderWipeDistance,4
;   primaryExtruder,0
;   layerHeight,0.2
;   topSolidLayers,3
;   bottomSolidLayers,3
;   perimeterOutlines,2
;   printPerimetersInsideOut,1
;   startPointOption,3
;   startPointOriginX,0
;   startPointOriginY,500
;   sequentialIslands,0
;   spiralVaseMode,0
;   firstLayerHeightPercentage,120
;   firstLayerWidthPercentage,120
;   firstLayerUnderspeed,0.3
;   useRaft,0
;   raftExtruder,0
;   raftTopLayers,3
;   raftBaseLayers,2
;   raftOffset,3
;   raftSeparationDistance,0.14
;   raftTopInfill,100
;   aboveRaftSpeedMultiplier,0.3
;   useSkirt,1
;   skirtExtruder,0
;   skirtLayers,1
;   skirtOutlines,3
;   skirtOffset,10
;   usePrimePillar,0
;   primePillarExtruder,999
;   primePillarWidth,12
;   primePillarLocation,7
;   primePillarSpeedMultiplier,1
;   useOozeShield,0
;   oozeShieldExtruder,999
;   oozeShieldOffset,2
;   oozeShieldOutlines,1
;   oozeShieldSidewallShape,1
;   oozeShieldSidewallAngle,30
;   oozeShieldSpeedMultiplier,1
;   infillExtruder,0
;   internalInfillPattern,Rectilinear
;   externalInfillPattern,Rectilinear
;   infillPercentage,25
;   outlineOverlapPercentage,20
;   infillExtrusionWidthPercentage,100
;   minInfillLength,5
;   infillLayerInterval,1
;   internalInfillAngles,45,-45
;   overlapInternalInfillAngles,0
;   externalInfillAngles,45,-45
;   generateSupport,0
;   supportExtruder,0
;   supportInfillPercentage,30
;   supportExtraInflation,0
;   supportBaseLayers,0
;   denseSupportExtruder,0
;   denseSupportLayers,0
;   denseSupportInfillPercentage,70
;   supportLayerInterval,1
;   supportHorizontalPartOffset,0.4
;   supportUpperSeparationLayers,1
;   supportLowerSeparationLayers,1
;   supportType,0
;   supportGridSpacing,4.5
;   maxOverhangAngle,45
;   supportAngles,0
;   temperatureName,Primary Extruder,Heated Bed
;   temperatureNumber,0,0
;   temperatureSetpointCount,1,1
;   temperatureSetpointLayers,1,1
;   temperatureSetpointTemperatures,195,55
;   temperatureStabilizeAtStartup,1,1
;   temperatureHeatedBed,0,1
;   temperatureRelayBetweenLayers,0,0
;   temperatureRelayBetweenLoops,0,0
;   fanLayers,1,2,4
;   fanSpeeds,0,100,100
;   blipFanToFullPower,1
;   adjustSpeedForCooling,1
;   minSpeedLayerTime,15
;   minCoolingSpeedSlowdown,20
;   increaseFanForCooling,0
;   minFanLayerTime,45
;   maxCoolingFanSpeed,100
;   increaseFanForBridging,1
;   bridgingFanSpeed,100
;   use5D,1
;   relativeEdistances,0
;   allowEaxisZeroing,1
;   independentExtruderAxes,0
;   includeM10123,0
;   stickySupport,1
;   applyToolheadOffsets,0
;   gcodeXoffset,0
;   gcodeYoffset,0
;   gcodeZoffset,0
;   overrideMachineDefinition,1
;   machineTypeOverride,0
;   strokeXoverride,310
;   strokeYoverride,310
;   strokeZoverride,350
;   originOffsetXoverride,0
;   originOffsetYoverride,0
;   originOffsetZoverride,0
;   homeXdirOverride,-1
;   homeYdirOverride,1
;   homeZdirOverride,-1
;   flipXoverride,1
;   flipYoverride,-1
;   flipZoverride,1
;   toolheadOffsets,0,0|0,0|0,0|0,0|0,0|0,0
;   overrideFirmwareConfiguration,1
;   firmwareTypeOverride,RepRap (Marlin/Repetier/Sprinter)
;   GPXconfigOverride,r2
;   baudRateOverride,115200
;   overridePrinterModels,1
;   printerModelsOverride,Blvfull.stl
;   startingGcode,M291 P"Homing all axis" R"Printing.." S1 T2,G21		; metric values,G28		; home all,;G29 S2		; mark if you want to disable mesh grid,G32		; Run mesh grid compenstion,		; Purge extruder,G92 E0 F100		; reset extruder,G1 Z10 F3000 		; move z up little to prevent scratching of surface,M98 P/macros/Filament/Purge	; Run nozzle purge macro,;G1 E-1 F2000		; Retract 1mm filament,G92 E0 		; reset extruder,M291 P"Printing started !" R"Printing.." S1 T3
;   layerChangeGcode,
;   retractionGcode,
;   toolChangeGcode,
;   endingGcode,M104 S0 ; turn off extruder,M140 S0 ; turn off bed,G1 X0 Y300 F1000 ; prepare for part removal,M84 ; disable motors,M107 :turn off part cooling fan,M81 S1 ; shutdown after all thermostatic fans have turned off,M291 P"Printing finished !" R"Printing.." S1 T0,
;   exportFileFormat,gcode
;   celebration,0
;   celebrationSong,Star Wars
;   postProcessing,
;   defaultSpeed,3600
;   outlineUnderspeed,0.5
;   solidInfillUnderspeed,0.8
;   supportUnderspeed,0.8
;   rapidXYspeed,7200
;   rapidZspeed,1002
;   minBridgingArea,50
;   bridgingExtraInflation,0
;   bridgingExtrusionMultiplier,1
;   bridgingSpeedMultiplier,1
;   useFixedBridgingAngle,0
;   fixedBridgingAngle,0
;   applyBridgingToPerimeters,1
;   filamentDiameters,1.75|1.75|1.75|1.75|1.75|1.75
;   filamentPricesPerKg,60|110|110|110|110|110
;   filamentDensities,1.25|1.25|1.25|1.25|1.25|1.25
;   useMinPrintHeight,0
;   minPrintHeight,0
;   useMaxPrintHeight,0
;   maxPrintHeight,0
;   useDiaphragm,0
;   diaphragmLayerInterval,20
;   robustSlicing,1
;   mergeAllIntoSolid,0
;   onlyRetractWhenCrossingOutline,0
;   retractBetweenLayers,1
;   useRetractionMinTravel,1
;   retractionMinTravel,3
;   retractWhileWiping,1
;   onlyWipeOutlines,1
;   avoidCrossingOutline,0
;   maxMovementDetourFactor,3
;   toolChangeRetractionDistance,12
;   toolChangeExtraRestartDistance,-0.5
;   toolChangeRetractionSpeed,600
;   externalThinWallType,0
;   internalThinWallType,2
;   thinWallAllowedOverlapPercentage,15
;   singleExtrusionMinLength,1
;   singleExtrusionMinPrintingWidthPercentage,50
;   singleExtrusionMaxPrintingWidthPercentage,200
;   singleExtrusionEndpointExtension,0.2
;   horizontalSizeCompensation,0
G90
M82
M106 S255
G4 P500
M106 S0
M140 S55
M190 S55
M104 S195 T0
M109 S195 T0
M291 P"Homing all axis" R"Printing.." S1 T2
G21		; metric values
G28		; home all
;G29 S2		; mark if you want to disable mesh grid
G32		; Run mesh grid compenstion
		; Purge extruder
G92 E0 F100		; reset extruder
G1 Z10 F3000 		; move z up little to prevent scratching of surface
M98 P/macros/Filament/Purge	; Run nozzle purge macro
;G1 E-1 F2000		; Retract 1mm filament
G92 E0 		; reset extruder
M291 P"Printing started !" R"Printing.." S1 T3
G92 E0
G1 E-3.0000 F3600
G1 Z0.240 F1002
; process BLV MGN CUBE
; layer 1, Z = 0.240
T0
; tool H0.240 W0.576
; skirt
G1 X133.983 Y140.178 F7200
G1 E0.0000 F1080
G92 E0
G1 X140.178 Y133.983 E0.5036 F1080
G1 X140.619 Y133.800 E0.5310
G1 X169.381 Y133.800 E2.1840
G1 X169.822 Y133.983 E2.2115
G1 X176.017 Y140.178 E2.7150
G1 X176.200 Y140.619 E2.7425
G1 X176.200 Y169.381 E4.3955
G1 X176.017 Y169.822 E4.4229
G1 X169.822 Y176.017 E4.9265
G1 X169.381 Y176.200 E4.9539
G1 X140.619 Y176.200 E6.6070
G1 X140.178 Y176.017 E6.6344
G1 X133.983 Y169.822 E7.1380
G1 X133.800 Y169.381 E7.1654
G1 X133.800 Y140.619 E8.8185
G1 X133.983 Y140.178 E8.8459
G1 X134.390 Y140.450 F7200
G92 E0
G1 X140.450 Y134.390 E0.4926 F1080
G1 X140.715 Y134.280 E0.5090
G1 X169.285 Y134.280 E2.1511
G1 X169.550 Y134.390 E2.1676
G1 X175.610 Y140.450 E2.6602
G1 X175.720 Y140.715 E2.6766
G1 X175.720 Y169.285 E4.3187
G1 X175.610 Y169.550 E4.3351
G1 X169.550 Y175.610 E4.8277
G1 X169.285 Y175.720 E4.8442
G1 X140.715 Y175.720 E6.4863
G1 X140.450 Y175.610 E6.5027
G1 X134.390 Y169.550 E6.9953
G1 X134.280 Y169.285 E7.0118
G1 X134.280 Y140.715 E8.6538
G1 X134.390 Y140.450 E8.6703
G1 X134.797 Y140.722 F7200
G92 E0
G1 X140.722 Y134.797 E0.4816 F1080
G1 X140.810 Y134.760 E0.4871
G1 X169.190 Y134.760 E2.1182
G1 X169.278 Y134.797 E2.1237
G1 X175.203 Y140.722 E2.6053
G1 X175.240 Y140.810 E2.6108
G1 X175.240 Y169.190 E4.2419
G1 X175.203 Y169.278 E4.2473
G1 X169.278 Y175.203 E4.7290
G1 X169.190 Y175.240 E4.7344
G1 X140.810 Y175.240 E6.3655
G1 X140.722 Y175.203 E6.3710
G1 X134.797 Y169.278 E6.8526
G1 X134.760 Y169.190 E6.8581
G1 X134.760 Y140.810 E8.4892
G1 X134.797 Y140.722 E8.4947
G92 E0
G1 E-3.0000 F3600
; inner perimeter
G1 X145.864 Y164.136 F7200
G1 E0.0000 F3600
G92 E0
G1 X145.864 Y145.864 E1.0502 F810
G1 X164.136 Y145.864 E2.1003
G1 X164.136 Y164.136 E3.1505
G1 X145.864 Y164.136 E4.2006
; outer perimeter
G1 X145.288 Y164.712 F7200
G92 E0
G1 X145.288 Y145.288 E1.1164 F540
G1 X164.712 Y145.288 E2.2327
G1 X164.712 Y164.712 E3.3491
G1 X145.288 Y164.712 E4.4655
G92 E0
G1 X145.288 Y161.712 E-3.0000 F3600
G1 X145.288 Y160.712 F3600
; solid layer
G1 X146.569 Y163.675 F7200
G1 E0.0000 F3600
G92 E0
G1 X146.325 Y163.431 E0.0198 F864
G1 X146.325 Y162.617 E0.0667
G1 X147.383 Y163.675 E0.1527
G1 X148.198 Y163.675 E0.1995
G1 X146.325 Y161.802 E0.3518
G1 X146.325 Y160.987 E0.3986
G1 X149.013 Y163.675 E0.6171
G1 X149.827 Y163.675 E0.6639
G1 X146.325 Y160.173 E0.9486
G1 X146.325 Y159.358 E0.9954
G1 X150.642 Y163.675 E1.3463
G1 X151.456 Y163.675 E1.3931
G1 X146.325 Y158.544 E1.8102
G1 X146.325 Y157.729 E1.8570
G1 X152.271 Y163.675 E2.3403
G1 X153.086 Y163.675 E2.3871
G1 X146.325 Y156.914 E2.9366
G1 X146.325 Y156.100 E2.9834
G1 X153.900 Y163.675 E3.5992
G1 X154.715 Y163.675 E3.6460
G1 X146.325 Y155.285 E4.3279
G1 X146.325 Y154.471 E4.3747
G1 X155.529 Y163.675 E5.1229
G1 X156.344 Y163.675 E5.1697
G1 X146.325 Y153.656 E5.9841
G1 X146.325 Y152.841 E6.0309
G1 X157.159 Y163.675 E6.9114
G1 X157.973 Y163.675 E6.9583
G1 X146.325 Y152.027 E7.9050
G1 X146.325 Y151.212 E7.9518
G1 X158.788 Y163.675 E8.9648
G1 X159.602 Y163.675 E9.0116
G1 X146.325 Y150.398 E10.0908
G1 X146.325 Y149.583 E10.1376
G1 X160.417 Y163.675 E11.2830
G1 X161.231 Y163.675 E11.3299
G1 X146.325 Y148.769 E12.5415
G1 X146.325 Y147.954 E12.5883
G1 X162.046 Y163.675 E13.8661
G1 X162.861 Y163.675 E13.9129
G1 X146.325 Y147.139 E15.2570
G1 X146.325 Y146.325 E15.3038
G1 X163.675 Y163.675 E16.7140
G1 X163.675 Y162.861 E16.7608
G1 X147.139 Y146.325 E18.1049
G1 X147.954 Y146.325 E18.1517
G1 X163.675 Y162.046 E19.4295
G1 X163.675 Y161.231 E19.4763
G1 X148.769 Y146.325 E20.6879
G1 X149.583 Y146.325 E20.7347
G1 X163.675 Y160.417 E21.8801
G1 X163.675 Y159.602 E21.9269
G1 X150.398 Y146.325 E23.0061
G1 X151.212 Y146.325 E23.0530
G1 X163.675 Y158.788 E24.0659
G1 X163.675 Y157.973 E24.1127
G1 X152.027 Y146.325 E25.0595
G1 X152.842 Y146.325 E25.1063
G1 X163.675 Y157.158 E25.9869
G1 X163.675 Y156.344 E26.0337
G1 X153.656 Y146.325 E26.8481
G1 X154.471 Y146.325 E26.8949
G1 X163.675 Y155.529 E27.6430
G1 X163.675 Y154.715 E27.6898
G1 X155.285 Y146.325 E28.3718
G1 X156.100 Y146.325 E28.4186
G1 X163.675 Y153.900 E29.0343
G1 X163.675 Y153.086 E29.0811
G1 X156.914 Y146.325 E29.6306
G1 X157.729 Y146.325 E29.6775
G1 X163.675 Y152.271 E30.1608
G1 X163.675 Y151.456 E30.2076
G1 X158.544 Y146.325 E30.6247
G1 X159.358 Y146.325 E30.6715
G1 X163.675 Y150.642 E31.0224
G1 X163.675 Y149.827 E31.0692
G1 X160.173 Y146.325 E31.3539
G1 X160.987 Y146.325 E31.4007
G1 X163.675 Y149.013 E31.6192
G1 X163.675 Y148.198 E31.6660
G1 X161.802 Y146.325 E31.8182
G1 X162.617 Y146.325 E31.8650
G1 X163.675 Y147.383 E31.9511
G1 X163.675 Y146.569 E31.9979
G1 X163.431 Y146.325 E32.0177
G92 E0
G1 E-3.0000 F3600
; layer 2, Z = 0.440
M106 S255
; tool H0.200 W0.480
; inner perimeter
G1 X145.720 Y164.280 F7200
G1 Z0.440 F1002
G1 E0.0000 F3600
G92 E0
G1 X145.720 Y145.720 E0.7408 F2700
G1 X164.280 Y145.720 E1.4815
G1 X164.280 Y164.280 E2.2223
G1 X145.720 Y164.280 E2.9631
; outer perimeter
G1 X145.240 Y164.760 F7200
G92 E0
G1 X145.240 Y145.240 E0.7791 F1800
G1 X164.760 Y145.240 E1.5582
G1 X164.760 Y164.760 E2.3373
G1 X145.240 Y164.760 E3.1163
G92 E0
G1 X145.240 Y161.760 E-3.0000 F3600
G1 X145.240 Y160.760 F3600
; solid layer
G1 X146.104 Y146.247 F7200
G1 E0.0000 F3600
G92 E0
G1 X146.247 Y146.104 E0.0081 F2880
G1 X146.925 Y146.104 E0.0351
G1 X146.104 Y146.925 E0.0815
G1 X146.104 Y147.604 E0.1086
G1 X147.604 Y146.104 E0.1933
G1 X148.283 Y146.104 E0.2204
G1 X146.104 Y148.283 E0.3434
G1 X146.104 Y148.962 E0.3705
G1 X148.962 Y146.104 E0.5318
G1 X149.641 Y146.104 E0.5589
G1 X146.104 Y149.641 E0.7585
G1 X146.104 Y150.320 E0.7856
G1 X150.320 Y146.104 E1.0236
G1 X150.998 Y146.104 E1.0506
G1 X146.104 Y150.998 E1.3269
G1 X146.104 Y151.677 E1.3540
G1 X151.677 Y146.104 E1.6686
G1 X152.356 Y146.104 E1.6957
G1 X146.104 Y152.356 E2.0486
G1 X146.104 Y153.035 E2.0757
G1 X153.035 Y146.104 E2.4669
G1 X153.714 Y146.104 E2.4940
G1 X146.104 Y153.714 E2.9235
G1 X146.104 Y154.393 E2.9506
G1 X154.393 Y146.104 E3.4184
G1 X155.071 Y146.104 E3.4455
G1 X146.104 Y155.071 E3.9517
G1 X146.104 Y155.750 E3.9788
G1 X155.750 Y146.104 E4.5232
G1 X156.429 Y146.104 E4.5503
G1 X146.104 Y156.429 E5.1331
G1 X146.104 Y157.108 E5.1602
G1 X157.108 Y146.104 E5.7813
G1 X157.787 Y146.104 E5.8084
G1 X146.104 Y157.787 E6.4678
G1 X146.104 Y158.465 E6.4949
G1 X158.465 Y146.104 E7.1926
G1 X159.144 Y146.104 E7.2197
G1 X146.104 Y159.144 E7.9558
G1 X146.104 Y159.823 E7.9829
G1 X159.823 Y146.104 E8.7573
G1 X160.502 Y146.104 E8.7843
G1 X146.104 Y160.502 E9.5970
G1 X146.104 Y161.181 E9.6241
G1 X161.181 Y146.104 E10.4751
G1 X161.860 Y146.104 E10.5022
G1 X146.104 Y161.860 E11.3915
G1 X146.104 Y162.538 E11.4186
G1 X162.538 Y146.104 E12.3462
G1 X163.217 Y146.104 E12.3733
G1 X146.104 Y163.217 E13.3393
G1 X146.104 Y163.896 E13.3664
G1 X163.896 Y146.104 E14.3706
G1 X163.896 Y146.783 E14.3977
G1 X146.783 Y163.896 E15.3637
G1 X147.462 Y163.896 E15.3908
G1 X163.896 Y147.462 E16.3184
G1 X163.896 Y148.141 E16.3455
G1 X148.141 Y163.896 E17.2348
G1 X148.819 Y163.896 E17.2619
G1 X163.896 Y148.819 E18.1129
G1 X163.896 Y149.498 E18.1400
G1 X149.498 Y163.896 E18.9526
G1 X150.177 Y163.896 E18.9797
G1 X163.896 Y150.177 E19.7541
G1 X163.896 Y150.856 E19.7812
G1 X150.856 Y163.896 E20.5172
G1 X151.535 Y163.896 E20.5443
G1 X163.896 Y151.535 E21.2421
G1 X163.896 Y152.213 E21.2691
G1 X152.213 Y163.896 E21.9286
G1 X152.892 Y163.896 E21.9557
G1 X163.896 Y152.892 E22.5767
G1 X163.896 Y153.571 E22.6038
G1 X153.571 Y163.896 E23.1866
G1 X154.250 Y163.896 E23.2137
G1 X163.896 Y154.250 E23.7582
G1 X163.896 Y154.929 E23.7853
G1 X154.929 Y163.896 E24.2914
G1 X155.608 Y163.896 E24.3185
G1 X163.896 Y155.608 E24.7864
G1 X163.896 Y156.286 E24.8135
G1 X156.286 Y163.896 E25.2430
G1 X156.965 Y163.896 E25.2701
G1 X163.896 Y156.965 E25.6613
G1 X163.896 Y157.644 E25.6884
G1 X157.644 Y163.896 E26.0413
G1 X158.323 Y163.896 E26.0683
G1 X163.896 Y158.323 E26.3829
G1 X163.896 Y159.002 E26.4100
G1 X159.002 Y163.896 E26.6863
G1 X159.680 Y163.896 E26.7134
G1 X163.896 Y159.680 E26.9513
G1 X163.896 Y160.359 E26.9784
G1 X160.359 Y163.896 E27.1780
G1 X161.038 Y163.896 E27.2051
G1 X163.896 Y161.038 E27.3664
G1 X163.896 Y161.717 E27.3935
G1 X161.717 Y163.896 E27.5165
G1 X162.396 Y163.896 E27.5436
G1 X163.896 Y162.396 E27.6283
G1 X163.896 Y163.075 E27.6554
G1 X163.075 Y163.896 E27.7017
G1 X163.753 Y163.896 E27.7288
G1 X163.896 Y163.753 E27.7369
G92 E0
G1 E-3.0000 F3600
; layer 3, Z = 0.640
; inner perimeter
G1 X145.720 Y164.280 F7200
G1 Z0.640 F1002
G1 E0.0000 F3600
G92 E0
G1 X145.720 Y145.720 E0.7408 F2700
G1 X164.280 Y145.720 E1.4815
G1 X164.280 Y164.280 E2.2223
G1 X145.720 Y164.280 E2.9631
; outer perimeter
G1 X145.240 Y164.760 F7200
G92 E0
G1 X145.240 Y145.240 E0.7791 F1800
G1 X164.760 Y145.240 E1.5582
G1 X164.760 Y164.760 E2.3373
G1 X145.240 Y164.760 E3.1163
G92 E0
G1 X145.240 Y161.760 E-3.0000 F3600
G1 X145.240 Y160.760 F3600
; solid layer
G1 X146.247 Y163.896 F7200
G1 E0.0000 F3600
G92 E0
G1 X146.104 Y163.753 E0.0081 F2880
G1 X146.104 Y163.075 E0.0351
G1 X146.925 Y163.896 E0.0815
G1 X147.604 Y163.896 E0.1086
G1 X146.104 Y162.396 E0.1933
G1 X146.104 Y161.717 E0.2204
G1 X148.283 Y163.896 E0.3434
G1 X148.962 Y163.896 E0.3705
G1 X146.104 Y161.038 E0.5318
G1 X146.104 Y160.359 E0.5589
G1 X149.641 Y163.896 E0.7585
G1 X150.320 Y163.896 E0.7856
G1 X146.104 Y159.680 E1.0235
