;FLAVOR:RepRap
;TIME:1792
;Filament used: 1.40404m
;Layer height: 0.15
;MINX:140.2
;MINY:140
;MINZ:0.2
;MAXX:159.999
;MAXY:159.8
;MAXZ:20.4
;Generated with Cura_SteamEngine 4.8.0
T0
M82 ;absolute extrusion mode
G21 ;metric values
G90 ;absolute positioning
M82 ;set extruder to absolute mode
M107 ;start with the fan off
G92 E0 ;zero the extruded length
M104 S170 T0; start preheat hotend_0
M140 S60 ; start preheating the bed
M190 S60 ; heat to Cura Bed setting
G28
G12 P1 S2 T3
G34
G29
G1 X0 Y0 Z1 F9000
M109 S200 T0
G1 X100 Y0 Z0.2 E30 F500 ;intro line
G92 E0 ;zero the extruded length again
M117 Printing...

G92 E0
G92 E0
G1 F5100 E-5.5
;LAYER_COUNT:133
;LAYER:0
M107
G1 F300 Z0.6
;MESH:xyzCalibration_cube.stl
G0 F2880 X141.3 Y141.3 Z0.6
;TYPE:WALL-INNER
G1 F300 Z0.2
G1 F2040 E0
G1 F1500 X158.7 Y141.3 E0.75234
G1 X158.7 Y158.7 E1.50469
G1 X141.3 Y158.7 E2.25703
G1 X141.3 Y141.3 E3.00938
G0 F2880 X140.78 Y140.78
G1 F1500 X159.22 Y140.78 E3.80669
G1 X159.22 Y159.22 E4.604
G1 X140.78 Y159.22 E5.40131
G1 X140.78 Y140.78 E6.19862
G0 F2880 X140.26 Y140.26
;TYPE:WALL-OUTER
G1 F1500 X159.74 Y140.26 E7.0409
G1 X159.74 Y159.74 E7.88318
G1 X140.26 Y159.74 E8.72546
G1 X140.26 Y140.26 E9.56774
G0 F2880 X140.46 Y140.26
G0 X140.832 Y140.832
G0 X141.81 Y141.81
;TYPE:SKIN
G1 F1500 X158.19 Y141.81 E10.27598
G1 X158.19 Y158.19 E10.98423
G1 X141.81 Y158.19 E11.69247
G1 X141.81 Y141.81 E12.40071
G0 F2880 X142.289 Y142.289
G1 F1500 X143.025 Y142.29 E12.43253
G1 X157.709 Y156.974 E13.33043
G1 X157.709 Y156.238 E13.36225
G1 X143.761 Y142.29 E14.21515
G1 X144.496 Y142.29 E14.24693
G1 X157.709 Y155.503 E15.05487
G1 X157.709 Y154.767 E15.0867
G1 X145.231 Y142.29 E15.84967
G1 X145.967 Y142.29 E15.8815
G1 X157.709 Y154.032 E16.5995
G1 X157.709 Y153.297 E16.63128
G1 X146.702 Y142.29 E17.30433
G1 X147.438 Y142.29 E17.33615
G1 X157.709 Y152.561 E17.96421
G1 X157.709 Y151.826 E17.99599
G1 X148.173 Y142.29 E18.57909
G1 X148.908 Y142.29 E18.61087
G1 X157.709 Y151.091 E19.14904
G1 X157.709 Y150.355 E19.18086
G1 X149.644 Y142.29 E19.67402
G1 X150.379 Y142.29 E19.7058
G1 X157.709 Y149.62 E20.15401
G1 X157.709 Y148.884 E20.18584
G1 X151.115 Y142.29 E20.58905
G1 X151.85 Y142.29 E20.62083
G1 X157.709 Y148.149 E20.97909
G1 X157.709 Y147.414 E21.01087
G1 X152.585 Y142.29 E21.3242
G1 X153.321 Y142.29 E21.35602
G1 X157.709 Y146.678 E21.62434
G1 X157.709 Y145.943 E21.65612
G1 X154.056 Y142.29 E21.87949
G1 X154.792 Y142.29 E21.91131
G1 X157.709 Y145.207 E22.08968
G1 X157.709 Y144.472 E22.12146
G1 X155.527 Y142.29 E22.25489
G1 X156.262 Y142.29 E22.28667
G1 X157.709 Y143.737 E22.37515
G1 X157.709 Y143.001 E22.40697
G1 X156.998 Y142.29 E22.45045
G1 X157.709 Y142.29 E22.48119
G1 F5100 E16.98119
G1 F300 Z0.6
G0 F2880 X142.289 Y142.289 Z0.6
G1 F300 Z0.2
G1 F2040 E22.48119
G1 F1500 X157.709 Y157.709 E23.42409
G1 X156.974 Y157.709 E23.45587
G1 X142.289 Y143.025 E24.3538
G1 X142.289 Y143.76 E24.38558
G1 X156.238 Y157.709 E25.23854
G1 X155.503 Y157.709 E25.27032
G1 X142.289 Y144.495 E26.07832
G1 X142.289 Y145.231 E26.11015
G1 X154.767 Y157.709 E26.87315
G1 X154.032 Y157.709 E26.90493
G1 X142.289 Y145.966 E27.62299
G1 X142.289 Y146.702 E27.65482
G1 X153.297 Y157.709 E28.3279
G1 X152.561 Y157.709 E28.35973
G1 X142.289 Y147.437 E28.98784
G1 X142.289 Y148.172 E29.01962
G1 X151.826 Y157.709 E29.60279
G1 X151.091 Y157.709 E29.63457
G1 X142.289 Y148.908 E30.17276
G1 X142.289 Y149.643 E30.20454
G1 X150.355 Y157.709 E30.69776
G1 X149.62 Y157.709 E30.72954
G1 X142.289 Y150.378 E31.17782
G1 X142.289 Y151.114 E31.20964
G1 X148.884 Y157.709 E31.61291
G1 X148.149 Y157.709 E31.64469
G1 X142.289 Y151.849 E32.00302
G1 X142.289 Y152.585 E32.03484
G1 X147.414 Y157.709 E32.3482
G1 X146.678 Y157.709 E32.38002
G1 X142.289 Y153.32 E32.6484
G1 X142.289 Y154.055 E32.68018
G1 X145.943 Y157.709 E32.90361
G1 X145.207 Y157.709 E32.93544
G1 X142.289 Y154.791 E33.11387
G1 X142.289 Y155.526 E33.14565
G1 X144.472 Y157.709 E33.27913
G1 X143.737 Y157.709 E33.31091
G1 X142.289 Y156.262 E33.39943
G1 X142.289 Y156.997 E33.43121
G1 X143.001 Y157.709 E33.47474
M104 S200
G1 X142.29 Y157.709 E33.50549
G1 F5100 E28.00549
G1 F300 Z0.6
;MESH:NONMESH
G0 F2880 X141 Y141 Z0.6
;TIME_ELAPSED:41.256788
;LAYER:1
M106 S85
;MESH:xyzCalibration_cube.stl
G0 F7200 X141 Y141 Z0.75
;TYPE:WALL-INNER
G1 F300 Z0.35
G1 F2040 E33.50549
G1 F8040 X159 Y141 E33.9545
G1 X159 Y159 E34.40351
G1 X141 Y159 E34.85252
G1 X141 Y141 E35.30153
G0 F7200 X140.6 Y140.6
G1 F8040 X159.4 Y140.6 E35.7705
G1 X159.4 Y159.4 E36.23947
G1 X140.6 Y159.4 E36.70844
G1 X140.6 Y140.6 E37.1774
G0 F7200 X140.2 Y140.2
;TYPE:WALL-OUTER
G1 F4020 X159.8 Y140.2 E37.66633
G1 X159.8 Y159.8 E38.15525
G1 X140.2 Y159.8 E38.64418
G1 X140.2 Y140.2 E39.1331
G0 F7200 X140.4 Y140.2
G0 X140.64 Y140.64
G0 X141.39 Y141.39
;TYPE:SKIN
G1 F3000 X158.61 Y141.39 E39.56265
G1 X158.61 Y158.61 E39.99221
G1 X141.39 Y158.61 E40.42176
G1 X141.39 Y141.39 E40.85132
G0 F7200 X141.749 Y141.749
G1 F3000 X141.75 Y142.223 E40.86314
G1 X142.224 Y141.749 E40.87986
G1 X142.79 Y141.749 E40.89398
G1 X141.75 Y142.789 E40.93067
G1 X141.75 Y143.355 E40.94479
G1 X143.356 Y141.749 E41.00145
G1 X143.921 Y141.749 E41.01554
G1 X141.75 Y143.92 E41.09213
G1 X141.75 Y144.486 E41.10625
G1 X144.487 Y141.749 E41.2028
G1 X145.053 Y141.749 E41.21692
G1 X141.75 Y145.052 E41.33344
G1 X141.75 Y145.618 E41.34756
G1 X145.618 Y141.749 E41.48403
G1 X146.184 Y141.749 E41.49815
G1 X141.75 Y146.183 E41.65457
G1 X141.75 Y146.749 E41.66869
G1 X146.75 Y141.749 E41.84508
G1 X147.315 Y141.749 E41.85918
G1 X141.75 Y147.315 E42.05551
G1 X141.75 Y147.88 E42.06961
G1 X147.881 Y141.749 E42.2859
G1 X148.447 Y141.749 E42.30001
G1 X141.75 Y148.446 E42.53627
G1 X141.75 Y149.012 E42.55039
G1 X149.012 Y141.749 E42.80659
G1 X149.578 Y141.749 E42.82071
G1 X141.75 Y149.577 E43.09687
G1 X141.75 Y150.143 E43.11098
G1 X150.144 Y141.749 E43.40711
G1 X150.709 Y141.749 E43.4212
G1 X141.75 Y150.709 E43.73727
G1 X141.75 Y151.274 E43.75136
G1 X151.275 Y141.749 E44.08738
G1 X151.841 Y141.749 E44.1015
G1 X141.75 Y151.84 E44.45749
G1 X141.75 Y152.406 E44.47161
G1 X152.406 Y141.749 E44.84755
G1 X152.972 Y141.749 E44.86167
G1 X141.75 Y152.971 E45.25755
G1 X141.75 Y153.537 E45.27167
G1 X153.538 Y141.749 E45.68752
G1 X154.104 Y141.749 E45.70164
G1 X141.75 Y154.103 E46.13746
G1 X141.75 Y154.669 E46.15158
G1 X154.669 Y141.749 E46.60735
G1 X155.235 Y141.749 E46.62147
G1 X141.75 Y155.234 E47.09719
G1 X141.75 Y155.8 E47.11131
G1 X155.801 Y141.749 E47.607
G1 X156.366 Y141.749 E47.62109
G1 X141.75 Y156.366 E48.13673
G1 X141.75 Y156.931 E48.15082
G1 X156.932 Y141.749 E48.68641
G1 X157.498 Y141.749 E48.70053
G1 X141.75 Y157.497 E49.25608
G1 X141.75 Y158.063 E49.2702
G1 X158.063 Y141.749 E49.8457
G1 X158.249 Y141.75 E49.85034
G1 X158.249 Y142.129 E49.8598
G1 X142.129 Y158.249 E50.42847
G1 X142.694 Y158.249 E50.44257
G1 X158.249 Y142.694 E50.99131
G1 X158.249 Y143.26 E51.00543
G1 X143.26 Y158.249 E51.53421
G1 X143.826 Y158.249 E51.54833
G1 X158.249 Y143.826 E52.05714
G1 X158.249 Y144.391 E52.07123
G1 X144.391 Y158.249 E52.56011
G1 X144.957 Y158.249 E52.57423
G1 X158.249 Y144.957 E53.04314
G1 X158.249 Y145.523 E53.05726
G1 X145.523 Y158.249 E53.5062
G1 X146.088 Y158.249 E53.5203
G1 X158.249 Y146.088 E53.94931
G1 X158.249 Y146.654 E53.96343
G1 X146.654 Y158.249 E54.37247
G1 X147.22 Y158.249 E54.38659
G1 X158.249 Y147.22 E54.77567
G1 X158.249 Y147.786 E54.78979
G1 X147.786 Y158.249 E55.1589
G1 X148.351 Y158.249 E55.17299
G1 X158.249 Y148.351 E55.52217
G1 X158.249 Y148.917 E55.53629
G1 X148.917 Y158.249 E55.8655
G1 X149.483 Y158.249 E55.87962
G1 X158.249 Y149.483 E56.18886
G1 X158.249 Y150.048 E56.20296
G1 X150.048 Y158.249 E56.49227
G1 X150.614 Y158.249 E56.50639
G1 X158.249 Y150.614 E56.77573
G1 X158.249 Y151.18 E56.78985
G1 X151.18 Y158.249 E57.03923
G1 X151.745 Y158.249 E57.05333
G1 X158.249 Y151.745 E57.28277
G1 X158.249 Y152.311 E57.29689
G1 X152.311 Y158.249 E57.50637
G1 X152.877 Y158.249 E57.52049
G1 X158.249 Y152.877 E57.71
G1 X158.249 Y153.442 E57.72409
G1 X153.442 Y158.249 E57.89367
G1 X154.008 Y158.249 E57.90779
G1 X158.249 Y154.008 E58.05741
G1 X158.249 Y154.574 E58.07153
G1 X154.574 Y158.249 E58.20117
G1 X155.139 Y158.249 E58.21526
G1 X158.249 Y155.139 E58.32498
G1 X158.249 Y155.705 E58.3391
G1 X155.705 Y158.249 E58.42884
G1 X156.271 Y158.249 E58.44296
G1 X158.249 Y156.271 E58.51274
G1 X158.249 Y156.836 E58.52684
G1 X156.836 Y158.249 E58.57668
G1 X157.402 Y158.249 E58.5908
G1 X158.249 Y157.402 E58.62068
G1 X158.249 Y157.968 E58.6348
G1 X157.968 Y158.249 E58.64471
G0 F7200 X158.249 Y158.249
G1 F3000 X158.249 Y157.968 E58.65172
G1 F5100 E53.15172
G1 F300 Z0.75
;MESH:NONMESH
G0 F7200 X141 Y141 Z0.75
;TIME_ELAPSED:68.227347
;LAYER:2
M106 S170
;MESH:xyzCalibration_cube.stl
G0 X141 Y141 Z0.9
;TYPE:WALL-INNER
G1 F300 Z0.5
G1 F2040 E58.65172
G1 F8040 X159 Y141 E59.10074
G1 X159 Y159 E59.54975
G1 X141 Y159 E59.99876
G1 X141 Y141 E60.44777
G0 F7200 X140.6 Y140.6
G1 F8040 X159.4 Y140.6 E60.91674
G1 X159.4 Y159.4 E61.38571
G1 X140.6 Y159.4 E61.85468
G1 X140.6 Y140.6 E62.32364
G0 F7200 X140.2 Y140.2
;TYPE:WALL-OUTER
G1 F4020 X159.8 Y140.2 E62.81257
G1 X159.8 Y159.8 E63.30149
G1 X140.2 Y159.8 E63.79041
G1 X140.2 Y140.2 E64.27934
G0 F7200 X140.4 Y140.2
G0 X140.64 Y140.64
G0 X141.39 Y141.39
;TYPE:SKIN
G1 F3000 X158.61 Y141.39 E64.70889
G1 X158.61 Y158.61 E65.13845
G1 X141.39 Y158.61 E65.568
G1 X141.39 Y141.39 E65.99756
G1 F5100 E60.49756
G1 F300 Z0.9
G0 F7200 X158.249 Y141.844 Z0.9
G1 F300 Z0.5
G1 F2040 E65.99756
G1 F3000 X158.155 Y141.75 E66.00087
G1 X158.249 Y141.75 E66.00322
G0 F7200 X158.155 Y141.75
G1 F3000 X157.589 Y141.75 E66.01734
G1 X158.249 Y142.41 E66.04062
G1 X158.249 Y142.976 E66.05474
G1 X157.023 Y141.75 E66.09799
G1 X156.457 Y141.75 E66.11211
G1 X158.249 Y143.541 E66.17531
G1 X158.249 Y144.107 E66.18943
G1 X155.892 Y141.75 E66.27258
G1 X155.326 Y141.75 E66.2867
G1 X158.249 Y144.673 E66.38981
G1 X158.249 Y145.239 E66.40393
G1 X154.76 Y141.75 E66.52702
G1 X154.195 Y141.75 E66.54111
G1 X158.249 Y145.804 E66.68413
G1 X158.249 Y146.37 E66.69824
G1 X153.629 Y141.75 E66.86123
G1 X153.063 Y141.75 E66.87535
G1 X158.249 Y146.936 E67.0583
G1 X158.249 Y147.501 E67.07239
G1 X152.498 Y141.75 E67.27527
G1 X151.932 Y141.75 E67.28939
G1 X158.249 Y148.067 E67.51224
G1 X158.249 Y148.633 E67.52636
G1 X151.366 Y141.75 E67.76918
G1 X150.801 Y141.75 E67.78327
G1 X158.249 Y149.198 E68.04602
G1 X158.249 Y149.764 E68.06014
G1 X150.235 Y141.75 E68.34285
G1 X149.669 Y141.75 E68.35697
G1 X158.249 Y150.33 E68.65965
G1 X158.249 Y150.895 E68.67375
G1 X149.104 Y141.75 E68.99636
G1 X148.538 Y141.75 E69.01048
G1 X158.249 Y151.461 E69.35306
G1 X158.249 Y152.027 E69.36718
G1 X147.972 Y141.75 E69.72973
G1 X147.407 Y141.75 E69.74383
G1 X158.249 Y152.592 E70.12631
G1 X158.249 Y153.158 E70.14043
G1 X146.841 Y141.75 E70.54287
G1 X146.275 Y141.75 E70.55699
G1 X158.249 Y153.724 E70.97941
G1 X158.249 Y154.289 E70.9935
G1 X145.709 Y141.75 E71.43587
G1 X145.144 Y141.75 E71.44996
G1 X158.249 Y154.855 E71.91227
G1 X158.249 Y155.421 E71.92639
G1 X144.578 Y141.75 E72.40867
G1 X144.012 Y141.75 E72.42279
G1 X158.249 Y155.987 E72.92504
G1 X158.249 Y156.552 E72.93914
G1 X143.447 Y141.75 E73.46132
G1 X142.881 Y141.75 E73.47544
G1 X158.249 Y157.118 E74.01758
G1 X158.249 Y157.684 E74.0317
G1 X142.315 Y141.75 E74.59382
G1 X141.749 Y141.749 E74.60794
G1 X158.249 Y158.249 E75.19002
G1 X157.684 Y158.249 E75.20411
G1 X141.749 Y142.315 E75.76624
G1 X141.749 Y142.88 E75.78034
G1 X157.118 Y158.249 E76.32252
G1 X156.552 Y158.249 E76.33664
G1 X141.749 Y143.446 E76.85886
G1 X141.749 Y144.012 E76.87298
G1 X155.987 Y158.249 E77.37524
G1 X155.421 Y158.249 E77.38936
G1 X141.749 Y144.577 E77.87168
G1 X141.749 Y145.143 E77.8858
G1 X154.855 Y158.249 E78.34815
G1 X154.289 Y158.249 E78.36226
G1 X141.749 Y145.709 E78.80465
G1 X141.749 Y146.274 E78.81874
G1 X153.724 Y158.249 E79.24119
G1 X153.158 Y158.249 E79.25531
G1 X141.749 Y146.84 E79.65779
G1 X141.749 Y147.406 E79.67191
G1 X152.592 Y158.249 E80.05443
G1 X152.027 Y158.249 E80.06852
G1 X141.749 Y147.971 E80.43111
G1 X141.749 Y148.537 E80.44523
G1 X151.461 Y158.249 E80.78784
G1 X150.895 Y158.249 E80.80196
G1 X141.749 Y149.103 E81.12461
G1 X141.749 Y149.669 E81.13873
G1 X150.33 Y158.249 E81.44143
G1 X149.764 Y158.249 E81.45555
G1 X141.749 Y150.234 E81.7383
G1 X141.749 Y150.8 E81.75242
G1 X149.198 Y158.249 E82.0152
G1 X148.633 Y158.249 E82.0293
G1 X141.749 Y151.366 E82.27213
G1 X141.749 Y151.931 E82.28623
G1 X148.067 Y158.249 E82.50911
G1 X147.501 Y158.249 E82.52323
G1 X141.749 Y152.497 E82.72615
G1 X141.749 Y153.063 E82.74026
G1 X146.936 Y158.249 E82.92323
G1 X146.37 Y158.249 E82.93735
G1 X141.749 Y153.628 E83.10037
G1 X141.749 Y154.194 E83.11449
G1 X145.804 Y158.249 E83.25754
G1 X145.239 Y158.249 E83.27163
G1 X141.749 Y154.76 E83.39474
G1 X141.749 Y155.325 E83.40883
G1 X144.673 Y158.249 E83.51198
G1 X144.107 Y158.249 E83.5261
G1 X141.749 Y155.891 E83.60929
G1 X141.749 Y156.457 E83.6234
G1 X143.541 Y158.249 E83.68662
G1 X142.976 Y158.249 E83.70072
G1 X141.749 Y157.022 E83.744
G1 X141.749 Y157.588 E83.75812
G1 X142.41 Y158.249 E83.78144
G1 X141.844 Y158.249 E83.79556
G1 X141.749 Y158.154 E83.79891
G0 F7200 X141.75 Y158.249
G1 F3000 X141.844 Y158.249 E83.80125
G1 F5100 E78.30125
G1 F300 Z0.9
;MESH:NONMESH
G0 F7200 X147.975 Y141.359 Z0.9
;TIME_ELAPSED:95.765838
;LAYER:3
M106 S255
;MESH:xyzCalibration_cube.stl
G0 X147.975 Y141.359 Z1.05
;TYPE:FILL
G1 F300 Z0.65
G1 F2040 E83.80125
G1 F10020 X141.36 Y147.974 E84.03462
G1 X141.36 Y146.676 E84.06699
G1 X146.677 Y141.359 E84.25457
G1 X152.025 Y141.36 E84.38797
G1 X158.639 Y147.974 E84.6213
G1 X158.639 Y146.676 E84.65368
G1 X153.323 Y141.36 E84.84121
G1 X158.64 Y141.36 E84.97385
G1 F5100 E79.47385
G0 F7200 X152.025 Y158.639
G1 F2040 E84.97385
G1 F10020 X158.639 Y152.025 E85.20717
G1 X158.639 Y153.323 E85.23955
G1 X153.323 Y158.639 E85.42709
G1 X147.974 Y158.639 E85.56052
G1 X141.359 Y152.024 E85.79388
G1 X141.36 Y158.64 E85.95892
G1 X146.676 Y158.639 E86.09153
G1 X141.359 Y153.322 E86.2791
G0 F7200 X141.27 Y158.73
G0 X141 Y159
;TYPE:WALL-INNER
G1 F8040 X141 Y141 E86.72811
G1 X159 Y141 E87.17712
G1 X159 Y159 E87.62613
G1 X141 Y159 E88.07515
G0 F7200 X140.6 Y159.4
G1 F8040 X140.6 Y140.6 E88.54411
G1 X159.4 Y140.6 E89.01308
G1 X159.4 Y159.4 E89.48205
G1 X140.6 Y159.4 E89.95102
G0 F7200 X140.2 Y159.8
;TYPE:WALL-OUTER
G1 F4020 X140.2 Y140.2 E90.43994
G1 X159.8 Y140.2 E90.92887
G1 X159.8 Y159.8 E91.41779
G1 X140.2 Y159.8 E91.90671
G0 F7200 X140.2 Y159.6
G0 X140.64 Y159.36
G0 X141.482 Y158.4
G1 F5100 E86.40671
;MESH:NONMESH
G0 F300 X141.482 Y158.4 Z0.8
G0 F7200 X146.527 Y141.359
;TIME_ELAPSED:105.119091
;LAYER:4
;TYPE:FILL
;MESH:xyzCalibration_cube.stl
G1 F2040 E91.90671
G1 F10020 X151.875 Y141.36 E92.04012
G1 X158.639 Y148.124 E92.27874
G1 X158.639 Y146.526 E92.3186
G1 X153.473 Y141.36 E92.50085
G1 X158.64 Y141.36 E92.62974
G1 F5100 E87.12974
G0 F7200 X148.125 Y141.359
G1 F2040 E92.62974
G1 F10020 X141.36 Y148.124 E92.86839
G1 X141.36 Y146.526 E92.90825
G1 X146.527 Y141.359 E93.09053
G1 F5100 E87.59053
G0 F7200 X141.359 Y153.472
G1 F2040 E93.09053
G1 F10020 X146.526 Y158.639 E93.27281
G1 X141.36 Y158.64 E93.40168
G1 X141.359 Y151.874 E93.57046
G1 X148.124 Y158.639 E93.80911
G1 X153.473 Y158.639 E93.94254
G1 X158.639 Y153.473 E94.12479
G1 X158.639 Y151.875 E94.16465
G1 X151.875 Y158.639 E94.40327
G0 F7200 X158.73 Y158.73
G0 X159 Y159
;TYPE:WALL-INNER
G1 F8040 X141 Y159 E94.85228
G1 X141 Y141 E95.30129
G1 X159 Y141 E95.7503
G1 X159 Y159 E96.19932
G0 F7200 X159.4 Y159.4
G1 F8040 X140.6 Y159.4 E96.66828
G1 X140.6 Y140.6 E97.13725
G1 X159.4 Y140.6 E97.60622
G1 X159.4 Y159.4 E98.07519
G0 F7200 X159.8 Y159.8
;TYPE:WALL-OUTER
G1 F4020 X140.2 Y159.8 E98.56411
G1 X140.2 Y140.2 E99.05303
G1 X159.8 Y140.2 E99.54196
G1 X159.8 Y159.8 E100.03088
G0 F7200 X159.6 Y159.8
G0 X159.36 Y159.36
G0 X158.4 Y158.518
G1 F5100 E94.53088
;MESH:NONMESH
G0 F300 X158.4 Y158.518 Z0.95
G0 F7200 X158.639 Y146.376
;TIME_ELAPSED:115.076238
;LAYER:5
;TYPE:FILL
;MESH:xyzCalibration_cube.stl
G1 F2040 E100.03088
G1 F10020 X153.623 Y141.36 E100.20784
G1 X158.64 Y141.36 E100.33299
