; G-Code generated by Simplify3D(R) Version 4.0.1
; Apr 28, 2021 at 4:03:41 PM
; Settings Summary
;   processName,BLV mgn cube
;   applyToModels,FYSETC  BLV Cube05
;   profileName,BLV mgn Cube - Simplify3D Profile V1.3
;   profileVersion,2021-04-24 18:15:30
;   baseProfile,Anet A8
;   printMaterial,PLA
;   printQuality,Medium
;   printExtruders,
;   extruderName,Primary Extruder
;   extruderToolheadNumber,0
;   extruderDiameter,0.4
;   extruderAutoWidth,1
;   extruderWidth,0.48
;   extrusionMultiplier,1
;   extruderUseRetract,1
;   extruderRetractionDistance,4
;   extruderExtraRestartDistance,0
;   extruderRetractionZLift,0
;   extruderRetractionSpeed,3600
;   extruderUseCoasting,0
;   extruderCoastingDistance,0.2
;   extruderUseWipe,1
;   extruderWipeDistance,4
;   primaryExtruder,0
;   layerHeight,0.2
;   topSolidLayers,3
;   bottomSolidLayers,3
;   perimeterOutlines,2
;   printPerimetersInsideOut,1
;   startPointOption,3
;   startPointOriginX,0
;   startPointOriginY,500
;   sequentialIslands,0
;   spiralVaseMode,0
;   firstLayerHeightPercentage,120
;   firstLayerWidthPercentage,120
;   firstLayerUnderspeed,0.3
;   useRaft,0
;   raftExtruder,0
;   raftTopLayers,3
;   raftBaseLayers,2
;   raftOffset,3
;   raftSeparationDistance,0.14
;   raftTopInfill,100
;   aboveRaftSpeedMultiplier,0.3
;   useSkirt,1
;   skirtExtruder,0
;   skirtLayers,1
;   skirtOutlines,2
;   skirtOffset,5
;   usePrimePillar,0
;   primePillarExtruder,999
;   primePillarWidth,12
;   primePillarLocation,7
;   primePillarSpeedMultiplier,1
;   useOozeShield,0
;   oozeShieldExtruder,999
;   oozeShieldOffset,2
;   oozeShieldOutlines,1
;   oozeShieldSidewallShape,1
;   oozeShieldSidewallAngle,30
;   oozeShieldSpeedMultiplier,1
;   infillExtruder,0
;   internalInfillPattern,Rectilinear
;   externalInfillPattern,Rectilinear
;   infillPercentage,20
;   outlineOverlapPercentage,20
;   infillExtrusionWidthPercentage,100
;   minInfillLength,5
;   infillLayerInterval,1
;   internalInfillAngles,45,-45
;   overlapInternalInfillAngles,0
;   externalInfillAngles,45,-45
;   generateSupport,0
;   supportExtruder,0
;   supportInfillPercentage,30
;   supportExtraInflation,0
;   supportBaseLayers,0
;   denseSupportExtruder,0
;   denseSupportLayers,0
;   denseSupportInfillPercentage,70
;   supportLayerInterval,1
;   supportHorizontalPartOffset,0.4
;   supportUpperSeparationLayers,1
;   supportLowerSeparationLayers,1
;   supportType,0
;   supportGridSpacing,4.5
;   maxOverhangAngle,45
;   supportAngles,0
;   temperatureName,Primary Extruder,Heated Bed
;   temperatureNumber,0,0
;   temperatureSetpointCount,1,1
;   temperatureSetpointLayers,1,1
;   temperatureSetpointTemperatures,195,60
;   temperatureStabilizeAtStartup,1,1
;   temperatureHeatedBed,0,1
;   temperatureRelayBetweenLayers,0,0
;   temperatureRelayBetweenLoops,0,0
;   fanLayers,1,2
;   fanSpeeds,0,100
;   blipFanToFullPower,1
;   adjustSpeedForCooling,1
;   minSpeedLayerTime,15
;   minCoolingSpeedSlowdown,20
;   increaseFanForCooling,0
;   minFanLayerTime,45
;   maxCoolingFanSpeed,100
;   increaseFanForBridging,1
;   bridgingFanSpeed,100
;   use5D,1
;   relativeEdistances,0
;   allowEaxisZeroing,1
;   independentExtruderAxes,0
;   includeM10123,0
;   stickySupport,1
;   applyToolheadOffsets,0
;   gcodeXoffset,0
;   gcodeYoffset,0
;   gcodeZoffset,0
;   overrideMachineDefinition,1
;   machineTypeOverride,0
;   strokeXoverride,310
;   strokeYoverride,310
;   strokeZoverride,350
;   originOffsetXoverride,0
;   originOffsetYoverride,0
;   originOffsetZoverride,0
;   homeXdirOverride,-1
;   homeYdirOverride,1
;   homeZdirOverride,-1
;   flipXoverride,1
;   flipYoverride,-1
;   flipZoverride,1
;   toolheadOffsets,0,0|0,0|0,0|0,0|0,0|0,0
;   overrideFirmwareConfiguration,1
;   firmwareTypeOverride,RepRap (Marlin/Repetier/Sprinter)
;   GPXconfigOverride,r2
;   baudRateOverride,115200
;   overridePrinterModels,1
;   printerModelsOverride,Blvfull.stl
;   startingGcode,M291 P"Homing all axis" R"Printing.." S1 T2,G21		; metric values,G28		; home all,;G29 S2		; mark if you want to disable mesh grid,G32		; Run mesh grid compenstion,		; Purge extruder,G92 E0 F100		; reset extruder,G1 Z10 F3000 		; move z up little to prevent scratching of surface,M98 P/macros/Filament/Purge	; Run nozzle purge macro,;G1 E-1 F2000		; Retract 1mm filament,G92 E0 		; reset extruder,M291 P"Printing started !" R"Printing.." S1 T3
;   layerChangeGcode,
;   retractionGcode,
;   toolChangeGcode,
;   endingGcode,M104 S0 ; turn off extruder,M140 S0 ; turn off bed,G1 X0 Y300 F1000 ; prepare for part removal,M84 ; disable motors,M107 :turn off part cooling fan,M81 S1 ; shutdown after all thermostatic fans have turned off,M291 P"Printing finished !" R"Printing.." S1 T0,
;   exportFileFormat,gcode
;   celebration,0
;   celebrationSong,Star Wars
;   postProcessing,
;   defaultSpeed,4200
;   outlineUnderspeed,0.5
;   solidInfillUnderspeed,0.8
;   supportUnderspeed,0.8
;   rapidXYspeed,6000
;   rapidZspeed,1002
;   minBridgingArea,50
;   bridgingExtraInflation,0
;   bridgingExtrusionMultiplier,1
;   bridgingSpeedMultiplier,1
;   useFixedBridgingAngle,0
;   fixedBridgingAngle,0
;   applyBridgingToPerimeters,1
;   filamentDiameters,1.75|1.75|1.75|1.75|1.75|1.75
;   filamentPricesPerKg,60|110|110|110|110|110
;   filamentDensities,1.25|1.25|1.25|1.25|1.25|1.25
;   useMinPrintHeight,0
;   minPrintHeight,0
;   useMaxPrintHeight,0
;   maxPrintHeight,0
;   useDiaphragm,0
;   diaphragmLayerInterval,20
;   robustSlicing,1
;   mergeAllIntoSolid,0
;   onlyRetractWhenCrossingOutline,0
;   retractBetweenLayers,1
;   useRetractionMinTravel,1
;   retractionMinTravel,3
;   retractWhileWiping,1
;   onlyWipeOutlines,1
;   avoidCrossingOutline,0
;   maxMovementDetourFactor,3
;   toolChangeRetractionDistance,12
;   toolChangeExtraRestartDistance,-0.5
;   toolChangeRetractionSpeed,600
;   externalThinWallType,0
;   internalThinWallType,2
;   thinWallAllowedOverlapPercentage,15
;   singleExtrusionMinLength,1
;   singleExtrusionMinPrintingWidthPercentage,50
;   singleExtrusionMaxPrintingWidthPercentage,200
;   singleExtrusionEndpointExtension,0.2
;   horizontalSizeCompensation,0
G90
M82
M106 S255
G4 P500
M106 S0
M140 S60
M190 S60
M104 S195 T0
M109 S195 T0
M291 P"Homing all axis" R"Printing.." S1 T2
G21		; metric values
G28		; home all
;G29 S2		; mark if you want to disable mesh grid
G32		; Run mesh grid compenstion
		; Purge extruder
G92 E0 F100		; reset extruder
G1 Z10 F3000 		; move z up little to prevent scratching of surface
M98 P/macros/Filament/Purge	; Run nozzle purge macro
;G1 E-1 F2000		; Retract 1mm filament
G92 E0 		; reset extruder
M291 P"Printing started !" R"Printing.." S1 T3
G92 E0
G1 E-4.0000 F3600
G1 Z0.240 F1002
; process BLV mgn cube
; layer 1, Z = 0.240
T0
; tool H0.240 W0.576
; skirt
G1 X135.082 Y136.709 F6000
G1 E0.0000 F1080
G92 E0
G1 X136.709 Y135.082 E0.1322 F1260
G1 X136.827 Y135.003 E0.1404
G1 X138.795 Y134.188 E0.2629
G1 X138.935 Y134.160 E0.2710
G1 X171.066 Y134.160 E2.1177
G1 X171.205 Y134.188 E2.1258
G1 X173.173 Y135.003 E2.2483
G1 X173.291 Y135.082 E2.2565
G1 X174.918 Y136.709 E2.3887
G1 X174.997 Y136.827 E2.3968
G1 X175.812 Y138.795 E2.5193
G1 X175.840 Y138.935 E2.5275
G1 X175.840 Y171.065 E4.3741
G1 X175.812 Y171.205 E4.3823
G1 X174.997 Y173.173 E4.5048
G1 X174.918 Y173.291 E4.5129
G1 X173.291 Y174.918 E4.6451
G1 X173.173 Y174.997 E4.6533
G1 X171.205 Y175.812 E4.7758
G1 X171.065 Y175.840 E4.7839
G1 X138.935 Y175.840 E6.6306
G1 X138.795 Y175.812 E6.6387
G1 X136.827 Y174.997 E6.7612
G1 X136.709 Y174.918 E6.7694
G1 X135.082 Y173.291 E6.9016
G1 X135.003 Y173.173 E6.9097
G1 X134.188 Y171.205 E7.0322
G1 X134.160 Y171.066 E7.0404
G1 X134.160 Y138.935 E8.8871
G1 X134.188 Y138.795 E8.8952
G1 X135.003 Y136.827 E9.0177
G1 X135.082 Y136.709 E9.0258
G1 X135.455 Y137.015 F6000
G92 E0
G1 X137.015 Y135.455 E0.1268 F1260
G1 X137.054 Y135.429 E0.1295
G1 X138.935 Y134.649 E0.2465
G1 X138.982 Y134.640 E0.2493
G1 X171.018 Y134.640 E2.0905
G1 X171.065 Y134.649 E2.0932
G1 X172.946 Y135.429 E2.2103
G1 X172.985 Y135.455 E2.2130
G1 X174.545 Y137.015 E2.3398
G1 X174.572 Y137.054 E2.3425
G1 X175.351 Y138.935 E2.4595
G1 X175.360 Y138.982 E2.4623
G1 X175.360 Y171.018 E4.3035
G1 X175.351 Y171.065 E4.3062
G1 X174.571 Y172.946 E4.4233
G1 X174.545 Y172.985 E4.4260
G1 X172.985 Y174.545 E4.5528
G1 X172.946 Y174.571 E4.5555
G1 X171.065 Y175.351 E4.6725
G1 X171.018 Y175.360 E4.6752
G1 X138.982 Y175.360 E6.5165
G1 X138.935 Y175.351 E6.5192
G1 X137.054 Y174.572 E6.6362
G1 X137.015 Y174.545 E6.6389
G1 X135.455 Y172.985 E6.7657
G1 X135.429 Y172.946 E6.7685
G1 X134.649 Y171.065 E6.8855
G1 X134.640 Y171.018 E6.8882
G1 X134.640 Y138.982 E8.7295
G1 X134.649 Y138.935 E8.7322
G1 X135.429 Y137.054 E8.8492
G1 X135.455 Y137.015 E8.8519
G92 E0
G1 E-4.0000 F3600
; inner perimeter
G1 X140.744 Y169.256 F6000
G1 E0.0000 F3600
G92 E0
G1 X140.744 Y140.744 E1.6387 F945
G1 X169.256 Y140.744 E3.2774
G1 X169.256 Y169.256 E4.9161
G1 X140.744 Y169.256 E6.5547
; outer perimeter
G1 X140.168 Y169.832 F6000
G92 E0
G1 X140.168 Y140.168 E1.7049 F630
G1 X169.832 Y140.168 E3.4098
G1 X169.832 Y169.832 E5.1147
G1 X140.168 Y169.832 E6.8196
G92 E0
G1 X140.168 Y165.165 E-4.0000 F4200
; inner perimeter
G1 X150.329 Y165.228 F6000
G1 E0.0000 F3600
G92 E0
G1 X150.859 Y165.454 E0.0331 F945
G1 X151.410 Y165.656 E0.0668
G1 X151.971 Y165.829 E0.1006
G1 X152.539 Y165.972 E0.1342
G1 X153.111 Y166.085 E0.1678
G1 X153.689 Y166.168 E0.2013
G1 X154.271 Y166.221 E0.2349
G1 X154.848 Y166.243 E0.2681
G1 X155.435 Y166.236 E0.3018
G1 X156.020 Y166.198 E0.3355
G1 X156.600 Y166.130 E0.3691
G1 X157.176 Y166.032 E0.4026
G1 X157.745 Y165.904 E0.4362
G1 X158.301 Y165.749 E0.4694
G1 X158.857 Y165.562 E0.5031
G1 X159.404 Y165.346 E0.5369
G1 X159.935 Y165.104 E0.5704
G1 X160.453 Y164.834 E0.6040
G1 X160.956 Y164.537 E0.6375
G1 X161.436 Y164.220 E0.6706
G1 X161.908 Y163.872 E0.7043
G1 X162.362 Y163.499 E0.7381
G1 X162.794 Y163.104 E0.7717
G1 X163.205 Y162.689 E0.8053
G1 X163.593 Y162.253 E0.8388
G1 X163.958 Y161.797 E0.8724
G1 X164.295 Y161.328 E0.9056
G1 X164.612 Y160.834 E0.9393
G1 X164.904 Y160.325 E0.9731
G1 X165.167 Y159.803 E1.0066
G1 X165.402 Y159.269 E1.0402
G1 X165.610 Y158.724 E1.0737
G1 X165.787 Y158.175 E1.1069
G1 X165.938 Y157.608 E1.1406
G1 X166.059 Y157.033 E1.1743
G1 X166.150 Y156.456 E1.2079
G1 X166.210 Y155.875 E1.2415
G1 X166.240 Y155.292 E1.2751
G1 X166.240 Y154.708 E1.3086
G1 X166.211 Y154.130 E1.3419
G1 X166.150 Y153.547 E1.3756
G1 X166.059 Y152.968 E1.4093
G1 X165.939 Y152.396 E1.4428
G1 X165.789 Y151.832 E1.4764
G1 X165.610 Y151.276 E1.5099
G1 X165.405 Y150.737 E1.5431
G1 X165.168 Y150.200 E1.5768
G1 X164.904 Y149.675 E1.6106
G1 X164.614 Y149.169 E1.6441
G1 X164.298 Y148.677 E1.6777
G1 X163.958 Y148.203 E1.7113
G1 X163.597 Y147.753 E1.7444
G1 X163.208 Y147.315 E1.7781
G1 X162.796 Y146.897 E1.8118
G1 X162.364 Y146.502 E1.8455
G1 X161.912 Y146.131 E1.8790
G1 X161.443 Y145.785 E1.9126
G1 X160.956 Y145.463 E1.9461
G1 X160.457 Y145.169 E1.9794
G1 X159.937 Y144.898 E2.0131
G1 X159.404 Y144.654 E2.0468
G1 X158.861 Y144.439 E2.0803
G1 X158.308 Y144.253 E2.1139
G1 X157.745 Y144.096 E2.1475
G1 X157.182 Y143.970 E2.1806
G1 X156.604 Y143.871 E2.2144
G1 X156.020 Y143.802 E2.2481
G1 X155.438 Y143.764 E2.2817
G1 X154.854 Y143.757 E2.3152
G1 X154.271 Y143.779 E2.3488
G1 X153.697 Y143.832 E2.3819
G1 X153.116 Y143.915 E2.4156
G1 X152.540 Y144.028 E2.4493
G1 X151.972 Y144.171 E2.4830
G1 X151.415 Y144.343 E2.5165
G1 X150.866 Y144.543 E2.5501
G1 X150.329 Y144.772 E2.5837
G1 X149.810 Y145.025 E2.6169
G1 X149.296 Y145.310 E2.6506
G1 X148.799 Y145.620 E2.6843
G1 X148.320 Y145.955 E2.7179
G1 X147.860 Y146.314 E2.7514
G1 X147.419 Y146.696 E2.7850
G1 X147.002 Y147.097 E2.8182
G1 X146.588 Y147.539 E2.8530
G1 X146.222 Y147.973 E2.8856
G1 X145.869 Y148.438 E2.9192
G1 X145.541 Y148.921 E2.9528
G1 X145.238 Y149.420 E2.9863
G1 X144.965 Y149.927 E3.0194
G1 X144.714 Y150.457 E3.0531
G1 X144.491 Y151.000 E3.0869
G1 X144.297 Y151.553 E3.1205
G1 X144.133 Y152.113 E3.1541
G1 X143.997 Y152.681 E3.1876
G1 X143.892 Y153.255 E3.2212
G1 X143.817 Y153.828 E3.2544
G1 X143.771 Y154.413 E3.2881
G1 X143.756 Y155.000 E3.3218
G1 X143.771 Y155.584 E3.3554
G1 X143.816 Y156.166 E3.3890
G1 X143.892 Y156.744 E3.4225
G1 X143.996 Y157.312 E3.4557
G1 X144.131 Y157.882 E3.4894
G1 X144.297 Y158.446 E3.5231
G1 X144.490 Y158.998 E3.5567
G1 X144.712 Y159.538 E3.5903
G1 X144.961 Y160.066 E3.6238
G1 X145.238 Y160.580 E3.6574
G1 X145.538 Y161.075 E3.6906
G1 X145.868 Y161.560 E3.7244
G1 X146.222 Y162.027 E3.7580
G1 X146.598 Y162.473 E3.7916
G1 X146.998 Y162.899 E3.8252
G1 X147.418 Y163.304 E3.8587
G1 X147.855 Y163.682 E3.8919
G1 X148.317 Y164.043 E3.9256
G1 X148.798 Y164.380 E3.9594
G1 X149.294 Y164.689 E3.9929
G1 X149.804 Y164.972 E4.0265
G1 X150.329 Y165.228 E4.0600
; outer perimeter
G1 X150.568 Y164.704 F6000
G92 E0
G1 X151.071 Y164.918 E0.0314 F630
G1 X151.594 Y165.110 E0.0634
G1 X152.126 Y165.274 E0.0954
G1 X152.665 Y165.409 E0.1273
G1 X153.208 Y165.517 E0.1592
G1 X153.756 Y165.595 E0.1910
G1 X154.308 Y165.646 E0.2228
G1 X154.856 Y165.667 E0.2544
G1 X155.413 Y165.660 E0.2864
G1 X155.968 Y165.624 E0.3183
G1 X156.518 Y165.560 E0.3502
G1 X157.064 Y165.466 E0.3820
G1 X157.605 Y165.345 E0.4139
G1 X158.132 Y165.198 E0.4453
G1 X158.660 Y165.021 E0.4773
G1 X159.178 Y164.816 E0.5094
G1 X159.682 Y164.586 E0.5412
G1 X160.173 Y164.330 E0.5730
G1 X160.651 Y164.049 E0.6049
G1 X161.106 Y163.747 E0.6363
G1 X161.554 Y163.417 E0.6683
G1 X161.985 Y163.064 E0.7003
G1 X162.395 Y162.689 E0.7322
G1 X162.784 Y162.295 E0.7640
G1 X163.152 Y161.881 E0.7959
G1 X163.499 Y161.448 E0.8277
G1 X163.819 Y161.003 E0.8592
G1 X164.120 Y160.535 E0.8912
G1 X164.396 Y160.052 E0.9232
G1 X164.646 Y159.557 E0.9550
G1 X164.869 Y159.050 E0.9869
G1 X165.066 Y158.533 E1.0187
G1 X165.234 Y158.012 E1.0502
G1 X165.377 Y157.474 E1.0822
G1 X165.492 Y156.929 E1.1142
G1 X165.578 Y156.381 E1.1460
G1 X165.636 Y155.830 E1.1779
G1 X165.665 Y155.277 E1.2097
G1 X165.665 Y154.723 E1.2416
G1 X165.636 Y154.175 E1.2731
G1 X165.579 Y153.621 E1.3051
G1 X165.492 Y153.072 E1.3371
G1 X165.378 Y152.530 E1.3689
G1 X165.236 Y151.994 E1.4007
G1 X165.066 Y151.467 E1.4326
G1 X164.871 Y150.955 E1.4640
G1 X164.647 Y150.446 E1.4960
G1 X164.396 Y149.948 E1.5281
G1 X164.121 Y149.467 E1.5599
G1 X163.822 Y149.001 E1.5917
G1 X163.499 Y148.552 E1.6236
G1 X163.157 Y148.125 E1.6550
G1 X162.787 Y147.708 E1.6870
G1 X162.396 Y147.312 E1.7190
G1 X161.986 Y146.938 E1.7509
G1 X161.558 Y146.586 E1.7827
G1 X161.113 Y146.257 E1.8146
G1 X160.651 Y145.951 E1.8464
G1 X160.178 Y145.673 E1.8779
G1 X159.684 Y145.415 E1.9099
G1 X159.178 Y145.184 E1.9419
G1 X158.663 Y144.981 E1.9737
G1 X158.138 Y144.804 E2.0056
G1 X157.605 Y144.655 E2.0374
G1 X157.070 Y144.535 E2.0689
G1 X156.522 Y144.441 E2.1009
G1 X155.968 Y144.376 E2.1329
G1 X155.415 Y144.340 E2.1648
G1 X154.862 Y144.333 E2.1966
G1 X154.308 Y144.354 E2.2284
G1 X153.764 Y144.404 E2.2598
G1 X153.213 Y144.483 E2.2918
G1 X152.666 Y144.590 E2.3238
G1 X152.128 Y144.726 E2.3558
G1 X151.598 Y144.889 E2.3876
G1 X151.078 Y145.079 E2.4194
G1 X150.568 Y145.296 E2.4513
G1 X150.076 Y145.537 E2.4828
G1 X149.589 Y145.806 E2.5148
G1 X149.116 Y146.101 E2.5468
G1 X148.662 Y146.418 E2.5786
G1 X148.226 Y146.759 E2.6104
G1 X147.807 Y147.122 E2.6423
G1 X147.412 Y147.501 E2.6737
G1 X147.019 Y147.922 E2.7068
G1 X146.672 Y148.333 E2.7378
G1 X146.337 Y148.774 E2.7696
G1 X146.025 Y149.232 E2.8014
G1 X145.738 Y149.706 E2.8333
G1 X145.479 Y150.187 E2.8647
G1 X145.241 Y150.690 E2.8967
G1 X145.030 Y151.205 E2.9287
G1 X144.846 Y151.730 E2.9606
G1 X144.689 Y152.261 E2.9925
G1 X144.561 Y152.800 E3.0243
G1 X144.461 Y153.345 E3.0561
G1 X144.390 Y153.888 E3.0876
G1 X144.346 Y154.443 E3.1196
G1 X144.332 Y155.000 E3.1516
G1 X144.346 Y155.554 E3.1835
G1 X144.389 Y156.106 E3.2153
G1 X144.461 Y156.655 E3.2471
G1 X144.560 Y157.193 E3.2786
G1 X144.688 Y157.735 E3.3106
G1 X144.845 Y158.269 E3.3426
G1 X145.029 Y158.793 E3.3745
G1 X145.239 Y159.305 E3.4063
G1 X145.476 Y159.806 E3.4381
G1 X145.738 Y160.294 E3.4700
G1 X146.023 Y160.763 E3.5015
